packages/foundations/assets/icons/functional/images/logos/s_bahn.svg

<svg xmlns="http://www.w3.org/2000/svg" width="32" height="32" fill="none"><path fill="#1A1C1F" fill-rule="evenodd" d="m14.747 2.058-.8.107c-.352.047-1 .177-1.44.288C8.54 3.46 5.149 6.245 3.383 9.945a13.96 13.96 0 0 0 0 12.11c2.075 4.347 6.296 7.333 11.124 7.868 1.274.142 3.098.049 4.368-.222a14.08 14.08 0 0 0 9.085-6.427c2.032-3.309 2.568-7.401 1.471-11.221-1.347-4.686-5.269-8.453-10.018-9.62-1.221-.3-1.74-.362-3.2-.38-.718-.009-1.378-.007-1.466.005m3.013 2.077a11.5 11.5 0 0 1 3.498 1.095c3.579 1.747 6.006 5.072 6.617 9.063.129.846.129 2.568 0 3.414-.612 3.992-3.035 7.313-6.622 9.071a11.93 11.93 0 0 1-10.506 0c-4.913-2.406-7.555-7.74-6.504-13.131.531-2.723 2.065-5.246 4.258-7.006 1.694-1.359 3.837-2.27 5.952-2.531.789-.097.861-.1 1.814-.08.513.011 1.185.058 1.493.105m-3.173 3.926c-.975.124-2.186.604-2.908 1.153-.924.702-1.548 1.653-1.76 2.683-.223 1.079-.058 2.28.429 3.13.228.397.81.995 1.274 1.308.747.504 1.427.77 3.429 1.34.771.22 1.617.486 1.88.592 1.067.43 1.574.949 1.662 1.702.125 1.06-1.081 1.951-2.639 1.951-2.066 0-4.23-1.123-5.652-2.931l-.355-.452-.016 1.572-.015 1.571.229.208c.888.808 2.604 1.599 4.201 1.938.577.123.797.142 1.627.144 1.047.003 1.447-.057 2.291-.342 1.822-.616 3.208-2.013 3.745-3.773.123-.404.143-.567.147-1.188.005-.872-.095-1.359-.406-1.981-.386-.771-1.056-1.374-2.037-1.834-.664-.311-1.105-.45-2.717-.857-2.521-.637-3.166-.954-3.558-1.75-.213-.433-.236-1.01-.056-1.383.351-.724 1.24-1.106 2.378-1.022a7 7 0 0 1 2.627.693c.886.419 1.623.944 2.426 1.728l.414.403V10l-.455-.32a9.2 9.2 0 0 0-3.225-1.433c-1.044-.231-2.092-.297-2.96-.186"/></svg>

<svg width="32" height="32" viewBox="0 0 32 32" fill="none" xmlns="http://www.w3.org/2000/svg"><path d="M14.747 2.058 C 14.659 2.070,14.299 2.118,13.947 2.165 C 13.595 2.212,12.947 2.342,12.507 2.453 C 8.540 3.460,5.149 6.245,3.383 9.945 C 1.541 13.804,1.541 18.196,3.383 22.055 C 5.458 26.402,9.679 29.388,14.507 29.923 C 15.781 30.065,17.605 29.972,18.875 29.701 C 22.665 28.892,25.927 26.585,27.960 23.274 C 29.992 19.965,30.528 15.873,29.431 12.053 C 28.084 7.367,24.162 3.600,19.413 2.433 C 18.192 2.133,17.673 2.071,16.213 2.053 C 15.495 2.044,14.835 2.046,14.747 2.058 M17.760 4.135 C 19.026 4.326,20.088 4.658,21.258 5.230 C 24.837 6.977,27.264 10.302,27.875 14.293 C 28.004 15.139,28.004 16.861,27.875 17.707 C 27.263 21.699,24.840 25.020,21.253 26.778 C 17.938 28.403,14.064 28.403,10.747 26.778 C 5.834 24.372,3.192 19.038,4.243 13.647 C 4.774 10.924,6.308 8.401,8.501 6.641 C 10.195 5.282,12.338 4.371,14.453 4.110 C 15.242 4.013,15.314 4.010,16.267 4.030 C 16.780 4.041,17.452 4.088,17.760 4.135 M14.587 8.061 C 13.612 8.185,12.401 8.665,11.679 9.214 C 10.755 9.916,10.131 10.867,9.919 11.897 C 9.696 12.976,9.861 14.177,10.348 15.027 C 10.576 15.424,11.158 16.022,11.622 16.335 C 12.369 16.839,13.049 17.105,15.051 17.675 C 15.822 17.895,16.668 18.161,16.931 18.267 C 17.998 18.697,18.505 19.216,18.593 19.969 C 18.718 21.029,17.512 21.920,15.954 21.920 C 13.888 21.920,11.724 20.797,10.302 18.989 L 9.947 18.537 9.931 20.109 L 9.916 21.680 10.145 21.888 C 11.033 22.696,12.749 23.487,14.346 23.826 C 14.923 23.949,15.143 23.968,15.973 23.970 C 17.020 23.973,17.420 23.913,18.264 23.628 C 20.086 23.012,21.472 21.615,22.009 19.855 C 22.132 19.451,22.152 19.288,22.156 18.667 C 22.161 17.795,22.061 17.308,21.750 16.686 C 21.364 15.915,20.694 15.312,19.713 14.852 C 19.049 14.541,18.608 14.402,16.996 13.995 C 14.475 13.358,13.830 13.041,13.438 12.245 C 13.225 11.812,13.202 11.235,13.382 10.862 C 13.733 10.138,14.622 9.756,15.760 9.840 C 16.726 9.911,17.508 10.118,18.387 10.533 C 19.273 10.952,20.010 11.477,20.813 12.261 L 21.227 12.664 21.227 11.332 L 21.227 10.000 20.772 9.680 C 19.805 9.000,18.672 8.496,17.547 8.247 C 16.503 8.016,15.455 7.950,14.587 8.061 " fill="#1A1C1F" stroke="none" fill-rule="evenodd"></path></svg>
